docs/_static/attrs_logo.svg

<?xml version="1.0" encoding="UTF-8" standalone="no"?>
<svg xmlns="http://www.w3.org/2000/svg" viewBox="0 0 142 118" version="1.1" fill="#222">
    <path d="M 88.984375 4.2460938 L 88.269531 6.40625 A 13.133 13.133 0 0 0 85.244141 6.9023438 L 83.9375 5.0625 L 83.699219 5.1523438 A 14.916 14.916 0 0 0 80.007812 7.0859375 L 79.8125 7.2265625 L 80.507812 9.40625 A 12.958 12.958 0 0 0 78.490234 11.496094 L 76.351562 10.785156 L 76.214844 10.996094 A 15.179 15.179 0 0 0 74.369141 14.8125 L 74.304688 15.035156 L 76.15625 16.398438 C 76.14425 16.418437 76.140719 16.441031 76.136719 16.457031 A 12.874 12.874 0 0 0 75.796875 19.035156 L 73.640625 19.71875 L 73.652344 19.964844 C 73.706344 21.432844 73.959109 22.867563 74.412109 24.226562 L 74.488281 24.453125 L 76.796875 24.464844 C 77.109875 25.214844 77.488594 25.930281 77.933594 26.613281 L 76.585938 28.441406 L 76.734375 28.636719 A 15.028 15.028 0 0 0 79.863281 31.710938 L 80.054688 31.851562 L 81.921875 30.515625 C 82.562875 30.917625 83.24975 31.265687 83.96875 31.554688 L 83.951172 33.835938 L 84.183594 33.910156 C 84.570594 34.031156 84.960281 34.144188 85.363281 34.242188 C 86.425281 34.488188 87.48425 34.621531 88.53125 34.644531 L 88.773438 34.648438 L 89.490234 32.484375 A 12.819 12.819 0 0 0 91.787109 32.167969 L 93.123047 34.03125 L 93.355469 33.957031 A 15.097 15.097 0 0 0 97.300781 32.070312 L 97.503906 31.933594 L 96.824219 29.773438 A 13.195 13.195 0 0 0 98.628906 28.085938 L 100.8125 28.8125 L 100.95508 28.621094 A 14.78 14.78 0 0 0 103.04688 24.859375 L 103.13672 24.621094 L 101.32031 23.285156 C 101.40631 23.008156 101.48078 22.726313 101.55078 22.445312 C 101.69178 21.832313 101.78875 21.226 101.84375 20.625 L 104.0332 19.929688 L 104.0332 19.691406 C 104.0332 19.605406 104.04297 19.518687 104.04297 19.429688 A 15.365 15.365 0 0 0 103.51953 15.5 L 103.45117 15.257812 L 101.19922 15.246094 A 13.253 13.253 0 0 0 99.941406 12.582031 L 101.29297 10.738281 L 101.15625 10.546875 A 15.367 15.367 0 0 0 98.287109 7.5429688 L 98.09375 7.3867188 L 96.253906 8.703125 A 13.082 13.082 0 0 0 93.53125 7.265625 L 93.542969 5 L 93.3125 4.9257812 A 18.186 18.186 0 0 0 92.320312 4.6523438 A 15.815 15.815 0 0 0 89.234375 4.25 L 88.984375 4.2460938 z M 88.759766 15.541016 A 3.914 3.914 0 0 1 89.740234 15.644531 A 3.913 3.913 0 0 1 92.753906 19.441406 C 92.753906 19.742406 92.722344 20.04275 92.652344 20.34375 A 3.92 3.92 0 0 1 88.847656 23.359375 A 3.72 3.72 0 0 1 87.949219 23.25 C 86.144219 22.836 84.9375 21.226125 84.9375 19.453125 C 84.9375 19.156125 84.967203 18.858688 85.033203 18.554688 A 3.914 3.914 0 0 1 88.759766 15.541016 z "/>
    <path d="M 60.488281 22.824219 C 58.968281 22.824219 57.488594 22.98425 56.058594 23.28125 L 55.78125 23.332031 L 55.488281 26.582031 C 54.023281 26.992031 52.624219 27.5785 51.324219 28.3125 L 48.886719 26.179688 L 48.648438 26.335938 A 21.852 21.852 0 0 0 44.152344 30.230469 L 43.972656 30.4375 L 45.65625 33.257812 A 18.478 18.478 0 0 0 43.46875 36.933594 L 40.248047 36.644531 L 40.15625 36.910156 A 21.157 21.157 0 0 0 38.84375 42.828125 L 38.820312 43.09375 L 41.855469 44.390625 C 41.851469 44.437625 41.851562 44.488063 41.851562 44.539062 C 41.851562 45.828063 41.988281 47.093687 42.238281 48.304688 L 39.455078 49.960938 L 39.527344 50.234375 A 21.58 21.58 0 0 0 41.980469 55.90625 L 42.119141 56.132812 L 45.34375 55.402344 A 18.763 18.763 0 0 0 47.714844 58.105469 L 46.4375 61.097656 L 46.648438 61.277344 A 21.703 21.703 0 0 0 52.007812 64.535156 L 52.248047 64.640625 L 54.425781 62.160156 C 55.484781 62.527156 56.601281 62.80075 57.738281 62.96875 L 58.464844 66.15625 L 58.744141 66.175781 C 59.307141 66.222781 59.894281 66.253906 60.488281 66.253906 C 62.042281 66.253906 63.558437 66.086437 65.023438 65.773438 L 65.296875 65.714844 L 65.589844 62.460938 A 19.053 19.053 0 0 0 68.792969 61.21875 L 71.269531 63.382812 L 71.503906 63.246094 A 21.892 21.892 0 0 0 76.378906 59.328125 L 76.574219 59.125 L 74.908203 56.335938 A 18.426 18.426 0 0 0 76.9375 53.289062 L 80.230469 53.585938 L 80.335938 53.335938 A 21.627 21.627 0 0 0 82.007812 47.414062 L 82.042969 47.128906 L 79.066406 45.859375 C 79.097406 45.430375 79.119141 44.988062 79.119141 44.539062 C 79.119141 43.625062 79.054781 42.734375 78.925781 41.859375 L 81.757812 40.171875 L 81.699219 39.90625 A 21.733 21.733 0 0 0 79.613281 34.246094 L 79.476562 33.992188 L 76.320312 34.714844 A 18.63 18.63 0 0 0 73.617188 31.320312 L 74.902344 28.308594 L 74.701172 28.132812 A 22.087 22.087 0 0 0 69.726562 24.886719 L 69.472656 24.769531 L 67.335938 27.210938 A 18.403 18.403 0 0 0 62.949219 26.074219 L 62.222656 22.898438 L 61.945312 22.882812 A 19.927 19.927 0 0 0 60.488281 22.824219 z M 60.488281 38.824219 C 63.644281 38.836219 66.199219 41.387062 66.199219 44.539062 A 5.715 5.715 0 0 1 60.488281 50.253906 A 5.717 5.717 0 0 1 54.773438 44.539062 A 5.725 5.725 0 0 1 60.488281 38.824219 z "/>
    <path d="m 134.226,94.281 c 0,0 0.445,2.621 -0.574,7.356 -1.024,4.796 -2.559,7.351 -2.559,7.351 a 31.76,31.76 0 0 1 -10.809,1.922 c -3.773,0 -7.16,-0.707 -9.976,-1.922 0,0 -0.383,-1.726 0.129,-4.988 1.406,0.387 6.457,1.793 10.933,1.793 2.497,0 5.375,-0.703 5.375,-0.703 0,0 0.704,-1.153 1.149,-3.453 0.512,-2.305 0.32,-3.454 0.32,-3.454 0,0 -2.558,-0.703 -5.051,-0.703 -3.902,0 -7.226,-0.64 -10.039,-1.855 0,0 -0.386,-2.879 0.383,-6.524 0.766,-3.707 2.43,-6.585 2.43,-6.585 3.324,-1.153 7.035,-1.856 10.808,-1.856 3.77,0 7.161,0.703 9.973,1.856 0,0.128 0.387,2.046 -0.062,5.179 -1.536,-0.449 -7.165,-1.918 -11,-1.918 -2.493,0 -5.372,0.703 -5.372,0.703 0,0 -0.64,1.024 -0.957,2.621 -0.32,1.598 -0.195,2.622 -0.195,2.622 0,0 2.496,0.64 5.117,0.703 3.774,0 7.164,0.64 9.977,1.855 z"/>
    <path d="m 105.511,80.66 c 1.984,0 3.84,0.191 5.629,0.578 -0.703,1.727 -1.469,3.324 -2.367,4.86 -1.406,-0.192 -2.813,-0.321 -4.348,-0.321 -2.492,0 -5.242,0.703 -5.242,0.703 0,0 -1.856,6.075 -2.496,9.274 L 93.62,110.269 H 87.8 l 3.07,-14.515 a 84.252,84.252 0 0 1 3.836,-13.238 c 3.325,-1.153 7.035,-1.856 10.805,-1.856 z"/>
    <path d="m 77.374,105.793 c 2.817,0 5.629,-0.512 7.867,-1.024 -0.765,1.981 -1.664,3.774 -2.621,5.5 -2.046,0.383 -4.156,0.641 -6.332,0.641 -3.773,0 -7.097,-0.707 -9.91,-1.922 0.125,-3.965 0.766,-8.441 1.789,-13.234 l 1.918,-9.082 h -6.457 c 0.703,-1.789 1.469,-3.453 2.492,-5.051 h 5.055 l 1.34,-6.332 a 31.365,31.365 0 0 1 6.074,-1.535 l -1.66,7.867 h 11.125 c -0.703,1.789 -1.535,3.516 -2.492,5.051 h -9.719 l -1.922,9.082 c -0.703,3.262 -1.469,9.336 -1.469,9.336 0,0 2.493,0.703 4.922,0.703 z"/>
    <path d="m 49.878,105.793 c 2.813,0 5.629,-0.512 7.867,-1.024 -0.769,1.981 -1.664,3.774 -2.621,5.5 -2.047,0.383 -4.16,0.641 -6.332,0.641 -3.773,0 -7.097,-0.707 -9.914,-1.922 0.129,-3.965 0.77,-8.441 1.793,-13.234 l 1.918,-9.082 h -6.461 c 0.707,-1.789 1.473,-3.453 2.496,-5.051 h 5.051 l 1.344,-6.332 a 31.365,31.365 0 0 1 6.074,-1.535 l -1.66,7.867 h 11.125 c -0.703,1.789 -1.535,3.516 -2.492,5.051 h -9.723 l -1.918,9.082 c -0.703,3.262 -1.469,9.336 -1.469,9.336 0,0 2.493,0.703 4.922,0.703 z"/>
    <path d="M 22.574219 80.660156 C 18.800219 80.660156 15.093625 81.362625 11.765625 82.515625 C 11.128625 84.112625 10.616109 85.715406 10.037109 87.441406 C 12.022109 86.863406 16.624281 85.777344 21.488281 85.777344 C 23.980281 85.777344 26.476562 86.480469 26.476562 86.480469 C 26.476562 86.480469 26.089531 89.101062 25.644531 91.789062 C 23.980531 91.469062 22.191938 91.277344 20.335938 91.277344 A 32.101 32.101 0 0 0 9.4648438 93.195312 C 9.4648437 93.195312 7.8003437 96.328 6.7773438 101.125 C 5.7533437 105.855 6.140625 108.98828 6.140625 108.98828 C 8.952625 110.20328 12.343281 110.91016 16.113281 110.91016 A 31.74 31.74 0 0 0 26.921875 108.98828 C 28.456875 105.02328 29.734813 100.54691 30.757812 95.753906 C 31.718813 91.018906 32.359781 86.542625 32.550781 82.515625 C 29.734781 81.362625 26.347219 80.660156 22.574219 80.660156 z M 19.248047 96.390625 A 21.116 21.116 0 0 1 24.619141 97.09375 C 23.850141 100.42175 22.511719 105.08984 22.511719 105.08984 C 22.511719 105.08984 19.951172 105.79297 17.201172 105.79297 C 14.705172 105.79297 12.152344 105.08984 12.152344 105.08984 C 12.152344 105.08984 12.085656 103.426 12.597656 101.125 C 13.109656 98.758 13.8125 97.09375 13.8125 97.09375 C 13.8125 97.09375 16.752047 96.390625 19.248047 96.390625 z "/>
</svg>

<?xml version="1.0" encoding="UTF-8" standalone="no"?><!DOCTYPE svg PUBLIC "-//W3C//DTD SVG 1.1//EN" "http://www.w3.org/Graphics/SVG/1.1/DTD/svg11.dtd"><svg width="100%" height="100%" viewBox="0 0 142 118" version="1.1" xmlns="http://www.w3.org/2000/svg" xmlns:xlink="http://www.w3.org/1999/xlink" xml:space="preserve" style="fill-rule:evenodd;clip-rule:evenodd;stroke-linejoin:round;stroke-miterlimit:1.41421;"><rect id="ArtBoard1" x="0" y="0" width="141.578" height="117.638" style="fill:none;"/><path d="M32.55,82.516c-0.191,4.027 -0.832,8.503 -1.793,13.238c-1.023,4.793 -2.301,9.269 -3.836,13.234c-3.324,1.215 -7.035,1.922 -10.808,1.922c-3.77,0 -7.161,-0.707 -9.973,-1.922c0,0 -0.387,-3.133 0.637,-7.863c1.023,-4.797 2.687,-7.93 2.687,-7.93c3.324,-1.215 7.098,-1.918 10.871,-1.918c1.856,0 3.645,0.192 5.309,0.512c0.445,-2.688 0.832,-5.309 0.832,-5.309c0,0 -2.496,-0.703 -4.988,-0.703c-4.864,0 -9.465,1.086 -11.45,1.664c0.579,-1.726 1.09,-3.328 1.727,-4.925c3.328,-1.153 7.035,-1.856 10.809,-1.856c3.773,0 7.16,0.703 9.976,1.856Zm-15.348,23.277c2.75,0 5.309,-0.703 5.309,-0.703c0,0 1.34,-4.668 2.109,-7.996c-1.152,-0.317 -3.132,-0.704 -5.371,-0.704c-2.496,0 -5.437,0.704 -5.437,0.704c0,0 -0.703,1.664 -1.215,4.031c-0.512,2.301 -0.445,3.965 -0.445,3.965c0,0 2.554,0.703 5.05,0.703Zm32.676,0c2.813,0 5.629,-0.512 7.867,-1.024c-0.769,1.981 -1.664,3.774 -2.621,5.5c-2.047,0.383 -4.16,0.641 -6.332,0.641c-3.773,0 -7.097,-0.707 -9.914,-1.922c0.129,-3.965 0.77,-8.441 1.793,-13.234l1.918,-9.082l-6.461,0c0.707,-1.789 1.473,-3.453 2.496,-5.051l5.051,0l1.344,-6.332c1.918,-0.703 3.965,-1.215 6.074,-1.535l-1.66,7.867l11.125,0c-0.703,1.789 -1.535,3.516 -2.492,5.051l-9.723,0l-1.918,9.082c-0.703,3.262 -1.469,9.336 -1.469,9.336c0,0 2.493,0.703 4.922,0.703Zm27.496,0c2.817,0 5.629,-0.512 7.867,-1.024c-0.765,1.981 -1.664,3.774 -2.621,5.5c-2.046,0.383 -4.156,0.641 -6.332,0.641c-3.773,0 -7.097,-0.707 -9.91,-1.922c0.125,-3.965 0.766,-8.441 1.789,-13.234l1.918,-9.082l-6.457,0c0.703,-1.789 1.469,-3.453 2.492,-5.051l5.055,0l1.34,-6.332c1.918,-0.703 3.965,-1.215 6.074,-1.535l-1.66,7.867l11.125,0c-0.703,1.789 -1.535,3.516 -2.492,5.051l-9.719,0l-1.922,9.082c-0.703,3.262 -1.469,9.336 -1.469,9.336c0,0 2.493,0.703 4.922,0.703Zm28.137,-25.133c1.984,0 3.84,0.191 5.629,0.578c-0.703,1.727 -1.469,3.324 -2.367,4.86c-1.406,-0.192 -2.813,-0.321 -4.348,-0.321c-2.492,0 -5.242,0.703 -5.242,0.703c0,0 -1.856,6.075 -2.496,9.274l-3.067,14.515l-5.82,0l3.07,-14.515c0.957,-4.735 2.301,-9.211 3.836,-13.238c3.325,-1.153 7.035,-1.856 10.805,-1.856Zm28.715,13.621c0,0 0.445,2.621 -0.574,7.356c-1.024,4.796 -2.559,7.351 -2.559,7.351c-3.328,1.215 -7.035,1.922 -10.809,1.922c-3.773,0 -7.16,-0.707 -9.976,-1.922c0,0 -0.383,-1.726 0.129,-4.988c1.406,0.387 6.457,1.793 10.933,1.793c2.497,0 5.375,-0.703 5.375,-0.703c0,0 0.704,-1.153 1.149,-3.453c0.512,-2.305 0.32,-3.454 0.32,-3.454c0,0 -2.558,-0.703 -5.051,-0.703c-3.902,0 -7.226,-0.64 -10.039,-1.855c0,0 -0.386,-2.879 0.383,-6.524c0.766,-3.707 2.43,-6.585 2.43,-6.585c3.324,-1.153 7.035,-1.856 10.808,-1.856c3.77,0 7.161,0.703 9.973,1.856c0,0.128 0.387,2.046 -0.062,5.179c-1.536,-0.449 -7.165,-1.918 -11,-1.918c-2.493,0 -5.372,0.703 -5.372,0.703c0,0 -0.64,1.024 -0.957,2.621c-0.32,1.598 -0.195,2.622 -0.195,2.622c0,0 2.496,0.64 5.117,0.703c3.774,0 7.164,0.64 9.977,1.855Z" style="fill:#222;fill-rule:nonzero;"/><path d="M79.12,44.539c0,-0.914 -0.066,-1.805 -0.195,-2.68l2.832,-1.687l-0.058,-0.266c-0.434,-2.004 -1.145,-3.902 -2.086,-5.66l-0.137,-0.254l-3.156,0.723c-0.766,-1.235 -1.676,-2.375 -2.703,-3.395l1.285,-3.012l-0.2,-0.175c-1.5,-1.293 -3.168,-2.391 -4.976,-3.246l-0.254,-0.118l-2.137,2.442c-1.386,-0.551 -2.855,-0.934 -4.386,-1.137l-0.727,-3.176l-0.277,-0.015c-0.477,-0.035 -0.965,-0.059 -1.457,-0.059c-1.52,0 -3,0.16 -4.43,0.457l-0.277,0.051l-0.293,3.25c-1.465,0.41 -2.864,0.996 -4.164,1.73l-2.438,-2.132l-0.238,0.156c-1.672,1.09 -3.188,2.402 -4.496,3.894l-0.18,0.207l1.684,2.821c-0.86,1.125 -1.602,2.363 -2.188,3.675l-3.219,-0.289l-0.093,0.266c-0.707,1.863 -1.157,3.852 -1.313,5.918l-0.023,0.266l3.035,1.296c-0.004,0.047 -0.004,0.098 -0.004,0.149c0,1.289 0.137,2.555 0.387,3.766l-2.782,1.656l0.071,0.273c0.55,2.028 1.379,3.926 2.453,5.672l0.14,0.227l3.223,-0.731c0.703,0.973 1.496,1.883 2.371,2.703l-1.277,2.993l0.211,0.179c1.609,1.328 3.41,2.434 5.359,3.258l0.242,0.105l2.176,-2.48c1.059,0.367 2.176,0.641 3.313,0.809l0.726,3.187l0.281,0.02c0.563,0.047 1.149,0.078 1.743,0.078c1.554,0 3.07,-0.168 4.535,-0.481l0.273,-0.058l0.293,-3.254c1.113,-0.317 2.18,-0.738 3.203,-1.242l2.477,2.164l0.234,-0.137c1.813,-1.07 3.449,-2.391 4.875,-3.918l0.196,-0.203l-1.665,-2.789c0.774,-0.938 1.45,-1.965 2.028,-3.047l3.293,0.297l0.105,-0.25c0.821,-1.84 1.391,-3.836 1.672,-5.922l0.035,-0.285l-2.976,-1.27c0.031,-0.429 0.054,-0.871 0.054,-1.32Zm-12.921,0c0,3.156 -2.555,5.711 -5.711,5.715c-3.161,-0.004 -5.711,-2.559 -5.715,-5.715c0.004,-3.152 2.554,-5.703 5.715,-5.715c3.156,0.012 5.711,2.563 5.711,5.715Z" style="fill:#222;fill-rule:nonzero;"/><path d="M103.519,15.5l-0.067,-0.242l-2.253,-0.012c-0.317,-0.934 -0.747,-1.832 -1.258,-2.664l1.351,-1.844l-0.136,-0.191c-0.809,-1.121 -1.778,-2.133 -2.868,-3.004l-0.195,-0.156l-1.84,1.316c-0.832,-0.578 -1.75,-1.059 -2.722,-1.437l0.011,-2.266l-0.23,-0.074c-0.328,-0.098 -0.649,-0.192 -0.992,-0.274c-1.028,-0.242 -2.063,-0.367 -3.086,-0.402l-0.25,-0.004l-0.715,2.16c-1.028,0.047 -2.047,0.215 -3.024,0.496l-1.308,-1.84l-0.238,0.09c-1.317,0.469 -2.559,1.121 -3.692,1.934l-0.195,0.14l0.695,2.18c-0.742,0.617 -1.422,1.313 -2.016,2.09l-2.14,-0.711l-0.137,0.211c-0.773,1.156 -1.402,2.434 -1.844,3.816l-0.066,0.223l1.852,1.363c-0.012,0.02 -0.016,0.043 -0.02,0.059c-0.207,0.867 -0.312,1.726 -0.34,2.578l-2.156,0.684l0.012,0.246c0.054,1.468 0.308,2.902 0.761,4.261l0.075,0.227l2.308,0.012c0.313,0.75 0.692,1.465 1.137,2.148l-1.348,1.828l0.149,0.196c0.886,1.16 1.929,2.207 3.129,3.074l0.191,0.14l1.867,-1.335c0.641,0.402 1.328,0.75 2.047,1.039l-0.016,2.281l0.231,0.074c0.387,0.121 0.777,0.234 1.18,0.332c1.062,0.246 2.121,0.379 3.168,0.402l0.242,0.004l0.718,-2.164c0.782,-0.035 1.547,-0.144 2.297,-0.316l1.336,1.863l0.231,-0.074c1.398,-0.43 2.73,-1.074 3.945,-1.887l0.203,-0.137l-0.679,-2.16c0.648,-0.504 1.257,-1.066 1.804,-1.687l2.184,0.726l0.144,-0.191c0.86,-1.117 1.567,-2.387 2.09,-3.762l0.09,-0.238l-1.816,-1.336c0.086,-0.277 0.16,-0.559 0.23,-0.84c0.141,-0.613 0.238,-1.219 0.293,-1.82l2.191,-0.695l0,-0.239c0,-0.086 0.008,-0.172 0.008,-0.261c-0.004,-1.34 -0.183,-2.661 -0.523,-3.93Zm-10.766,3.941c0,0.301 -0.031,0.602 -0.101,0.903c-0.43,1.8 -2.032,3.015 -3.805,3.015c-0.301,0 -0.598,-0.035 -0.898,-0.109c-1.805,-0.414 -3.012,-2.024 -3.012,-3.797c0,-0.297 0.031,-0.594 0.097,-0.898c0.422,-1.801 2.032,-3.016 3.809,-3.016c0.289,0 0.594,0.031 0.898,0.105c1.793,0.418 3.012,2.032 3.012,3.797Z" style="fill:#222;fill-rule:nonzero;"/></svg>
